!! 00000] TT[WS
!!!OTL: Manzuizui baiyaya duigege xiao
!!!ARE: Asia, China, Shanxi Hequ
!! Ethnic Group: Han
!! WII, 18
!!!SCT: J0421
!!!YEM: Copyright 1995, estate of Helmut Schaffrath.
**kern
*ICvox
*Ivox
*M2/4
*k[b-e-a-]
*E-:
{16b-
16b-
16b-
16g
8.ee-
16ee-
=1
8ff
4b-
8g
=2
8cc
8e-
16b-
16cc
16ee-
16ff
=3
2b-}
=4
{16b-
16b-
16b-
16g
8.ee-
16ee-
=5
8ff
4b-
8g
=6
8cc
8e-
16b-
16cc
8ee-
=7
2e-}
==
!!!AGN: Shange, Shanqu. Qingge
!!!ONB: ESAC (Essen Associative Code) Database: CHINA
!!!AMT: simple duple
!!!AIN: vox
!!!EED: Helmut Schaffrath
!!!EEV: 1.0
*-
